public/images/sponsors/Google.svg

<svg width="222" height="73" viewBox="0 0 222 73" fill="none" xmlns="http://www.w3.org/2000/svg">
<path d="M41.9947 25.7348L54.4692 25.7348C54.8327 25.7348 54.9851 25.8167 55.0173 26.1941C55.7911 33.177 54.821 39.7913 50.7615 45.724C48.1704 49.53 44.6034 52.1628 40.4442 54.0585C36.4363 55.8657 32.0497 56.6777 27.6591 56.4252C14.4694 55.8693 3.19664 46.2184 0.969056 33.215C-0.824737 22.7479 2.51664 13.9132 10.4803 6.92736C14.7052 3.20015 19.9946 0.888912 25.6044 0.318877C34.0018 -0.614327 41.4642 1.64408 47.9418 7.10288C48.402 7.48904 48.3932 7.48904 47.9418 7.93955C46.3591 9.56607 44.7675 11.178 43.1994 12.822C42.9444 13.0853 42.8125 13.1234 42.4989 12.8659C38.523 9.36723 33.3187 7.586 28.0284 7.91322C16.7556 8.51 8.10319 18.1112 8.69819 29.3623C8.87699 32.7327 9.89092 36.0062 11.6491 38.8894C13.4073 41.7725 15.8548 44.1752 18.7722 45.882C22.2306 47.9394 26.2322 48.9032 30.2501 48.6465C34.9544 48.354 39.1458 46.7655 42.6279 43.5095C45.2541 41.0434 46.6785 37.9454 47.1504 34.4057C47.2823 33.3993 47.2618 33.3993 46.2565 33.3905L36.0799 33.3642C33.8435 33.3642 31.6042 33.3291 29.3561 33.3174C29.0308 33.3174 28.9311 33.2472 28.9311 32.9049C28.9516 30.6553 28.9516 28.4027 28.9311 26.1502C28.9311 25.764 29.066 25.7172 29.3913 25.726C33.6003 25.7377 37.8004 25.7435 41.9889 25.7377L41.9947 25.7348ZM163.938 24.0146C163.973 23.2423 164.025 22.47 164.043 21.6626C164.043 21.3525 164.166 21.2765 164.462 21.2765L171.139 21.2765C171.453 21.2765 171.526 21.3525 171.526 21.6626L171.526 54.9537C171.526 59.0931 170.474 62.8903 168.006 66.2457C166.441 68.3899 164.322 70.0686 161.874 71.1019C160.549 71.5992 159.172 71.9386 157.765 72.1082C154.817 72.6373 151.787 72.4801 148.91 71.6489C144.689 70.394 141.638 67.6997 139.434 63.9668C139.118 63.4198 138.851 62.8435 138.534 62.2994C138.391 62.0536 138.452 61.9454 138.701 61.8401C140.797 60.9361 142.893 60.0263 144.982 59.1107C145.264 58.9878 145.299 59.1546 145.369 59.3242C146.286 61.2323 147.671 62.8778 149.397 64.1073C150.877 65.1291 152.673 65.5925 154.464 65.4149C155.704 65.3769 156.932 65.1663 158.111 64.7889C161.206 63.6509 162.976 61.3457 163.747 58.2272C164.142 56.3826 164.26 54.4898 164.099 52.6104C164.099 52.5051 164.125 52.3442 163.981 52.3091C163.838 52.274 163.779 52.4174 163.691 52.4876C161.956 53.9795 159.922 55.0912 157.727 55.7465C154.33 56.7089 151.038 56.3111 147.855 54.9098C141.43 52.0751 138.018 46.9352 136.831 40.2155C136.274 37.0473 136.949 33.9815 138.309 31.0649C140.176 26.9152 143.436 23.5463 147.527 21.5397C152.811 18.9332 157.809 19.647 162.516 23.0229C162.964 23.3506 163.41 23.6958 163.85 24.038C163.876 24.0293 163.894 24.0234 163.938 24.0146ZM144.941 37.9629C144.968 40.7977 145.677 43.1643 147.216 45.2677C150.625 49.9395 156.929 50.627 161.141 46.786C165.752 42.5383 166.019 34.8181 161.701 30.2662C158.152 26.5217 152.767 26.1707 148.89 29.4705C146.202 31.7552 145.041 34.7596 144.941 37.9629ZM94.2346 38.2643C94.2053 48.3393 85.9984 56.4807 75.9039 56.4515C65.8094 56.4222 57.6523 48.2311 57.6816 38.156C57.711 28.0809 65.9178 19.9395 76.0123 19.9688L76.027 19.9688C86.1156 20.0039 94.2668 28.195 94.2346 38.2643ZM86.2973 39.0044C86.2973 35.959 85.632 33.7504 84.3628 31.8693C80.6492 26.3608 73.181 25.7143 68.6965 30.509C64.5608 35.0346 64.7015 42 69.013 46.3559C72.3837 49.7933 77.771 50.2496 81.6722 47.4266C83.0496 46.4817 84.1853 45.2269 84.9877 43.7634C85.79 42.3 86.2366 40.6688 86.2915 39.0015L86.2944 39.0015L86.2973 39.0044ZM97.1978 38.2204C97.1861 28.1424 105.358 19.9659 115.455 19.9512C125.553 19.9395 133.745 28.0956 133.76 38.1736C133.771 48.2516 125.6 56.4281 115.502 56.4427L115.467 56.4427C105.387 56.4281 97.2184 48.2808 97.1978 38.2204ZM105.202 37.5417C105.202 40.6309 105.865 42.8191 107.166 44.7382C110.713 49.9893 117.8 50.8113 122.355 46.5022C126.652 42.4417 126.998 35.3476 123.129 30.8835C119.776 27.0219 114.421 26.1238 110.241 28.8532C108.749 29.7749 107.509 31.051 106.631 32.5676C105.753 34.0842 105.266 35.7941 105.211 37.5446L105.2 37.5446L105.202 37.5417ZM206.868 56.1531C197.527 56.1531 190.085 49.802 188.62 41.0961C187.116 32.1677 192.407 23.4442 201.083 20.8728C206.736 19.1965 212.991 20.5363 217.364 25.8723C219.142 28.1308 220.529 30.6699 221.468 33.3847C221.585 33.6948 221.371 33.6948 221.213 33.7708C219.302 34.5841 217.4 35.3974 215.477 36.1989C209.612 38.6621 203.747 41.1165 197.882 43.5651C197.556 43.7055 197.521 43.8196 197.674 44.1297C198.49 45.8703 199.848 47.3014 201.544 48.2101C203.241 49.1187 205.187 49.4565 207.091 49.1731C209.799 48.8367 212.171 47.8216 214.026 45.765C214.395 45.3613 214.718 44.9196 214.993 44.4486C215.09 44.276 215.151 44.1794 215.38 44.3374C217.221 45.5807 219.073 46.8094 220.937 48.0293C221.248 48.2311 221.043 48.3657 220.937 48.5032C218.916 51.4148 216.074 53.6619 212.771 54.9595C210.89 55.7033 208.891 56.1084 206.868 56.156L206.868 56.1531ZM196.138 37.7143L196.624 37.5212L199.755 36.2136C203.864 34.5022 207.956 32.7821 212.062 31.0766C212.388 30.9449 212.405 30.8308 212.22 30.5558C211.682 29.7428 210.993 29.039 210.192 28.4817C208.258 27.1507 206.13 26.9371 203.885 27.3964C200.57 28.0634 198.081 29.7718 196.9 33.057C196.355 34.549 196.097 36.1287 196.138 37.7172L196.138 37.7143ZM176.957 28.5432L176.957 2.49538C176.957 2.07412 177.045 1.96003 177.479 1.96588C179.824 1.99221 182.166 1.98636 184.51 1.96588C184.833 1.96588 184.935 2.02731 184.935 2.37251L184.935 54.7694C184.935 55.0795 184.853 55.1555 184.549 55.1555L177.426 55.1555C177.004 55.1555 176.966 55.0063 176.966 54.6524C176.957 45.9493 176.954 37.2462 176.954 28.5432L176.957 28.5432Z" fill="#D1D1D1"/>
</svg>

<svg xmlns="http://www.w3.org/2000/svg" fill="none" viewBox="0 0 222 73">
  <path fill="#D1D1D1" d="M41.995 25.735h12.474c.364 0 .516.082.548.46.774 6.982-.196 13.596-4.256 19.529-2.59 3.806-6.158 6.439-10.317 8.335a27.3 27.3 0 0 1-12.785 2.366C14.47 55.87 3.197 46.218.97 33.215-.825 22.748 2.517 13.913 10.48 6.927A27 27 0 0 1 25.604.32c8.398-.933 15.86 1.325 22.338 6.784.46.386.451.386 0 .837-1.583 1.626-3.175 3.238-4.743 4.882-.255.263-.386.301-.7.044a20.03 20.03 0 0 0-14.47-4.953c-11.273.597-19.926 10.198-19.33 21.45a20.4 20.4 0 0 0 2.95 9.526 20.4 20.4 0 0 0 7.123 6.993 19.96 19.96 0 0 0 11.478 2.765c4.704-.293 8.896-1.881 12.378-5.137 2.626-2.467 4.05-5.565 4.522-9.104.132-1.007.112-1.007-.893-1.015l-10.177-.027c-2.236 0-4.476-.035-6.724-.047-.325 0-.425-.07-.425-.412q.03-3.375 0-6.755c0-.386.135-.433.46-.424q6.316.02 12.598.012zm121.943-1.72c.035-.773.087-1.545.105-2.352 0-.31.123-.387.419-.387h6.677c.314 0 .387.076.387.387v33.29c0 4.14-1.052 7.937-3.52 11.293a14.64 14.64 0 0 1-6.132 4.856 17.7 17.7 0 0 1-4.109 1.006c-2.948.53-5.978.372-8.855-.46-4.221-1.254-7.272-3.948-9.476-7.681-.316-.547-.583-1.123-.9-1.668-.143-.245-.082-.354.167-.459q3.146-1.356 6.281-2.73c.282-.122.317.045.387.214a12.54 12.54 0 0 0 4.028 4.783 7.6 7.6 0 0 0 5.067 1.308 13.3 13.3 0 0 0 3.647-.626c3.095-1.138 4.865-3.443 5.636-6.562.395-1.844.513-3.737.352-5.617 0-.105.026-.266-.118-.3-.143-.036-.202.107-.29.178a16.3 16.3 0 0 1-5.964 3.258c-3.397.963-6.689.565-9.872-.836-6.425-2.835-9.837-7.975-11.024-14.694-.557-3.169.118-6.235 1.478-9.151a19.54 19.54 0 0 1 9.218-9.525c5.284-2.607 10.282-1.893 14.989 1.483.448.328.894.673 1.334 1.015a1 1 0 0 1 .088-.023m-18.997 13.948c.027 2.835.736 5.201 2.275 7.305 3.409 4.672 9.713 5.359 13.925 1.518 4.611-4.248 4.878-11.968.56-16.52-3.549-3.744-8.934-4.095-12.811-.795-2.688 2.284-3.849 5.289-3.949 8.492m-50.706.301c-.03 10.075-8.237 18.217-18.331 18.188-10.095-.03-18.252-8.22-18.222-18.296s8.236-18.216 18.33-18.187h.015c10.089.035 18.24 8.226 18.208 18.295m-7.938.74c0-3.045-.665-5.254-1.934-7.135-3.714-5.508-11.182-6.155-15.666-1.36a11.496 11.496 0 0 0 .316 15.847 9.74 9.74 0 0 0 12.66 1.07 10.63 10.63 0 0 0 4.62-8.425h.001zm10.9-.784c-.01-10.078 8.161-18.254 18.258-18.269 10.098-.012 18.29 8.145 18.305 18.223.011 10.078-8.16 18.254-18.258 18.269h-.035c-10.08-.015-18.249-8.162-18.27-18.223m8.005-.678c0 3.089.663 5.277 1.964 7.196 3.547 5.251 10.634 6.073 15.189 1.764 4.297-4.06 4.643-11.154.774-15.619-3.353-3.861-8.708-4.76-12.888-2.03a10.6 10.6 0 0 0-5.03 8.691h-.011zm101.666 18.611c-9.341 0-16.783-6.351-18.248-15.057-1.504-8.928 3.787-17.652 12.463-20.223 5.653-1.677 11.908-.337 16.281 5a25.8 25.8 0 0 1 4.104 7.512c.117.31-.097.31-.255.386-1.911.813-3.813 1.626-5.736 2.428a9006 9006 0 0 1-17.595 7.366c-.326.14-.361.255-.208.565a8.93 8.93 0 0 0 3.87 4.08 8.96 8.96 0 0 0 5.547.963c2.708-.336 5.08-1.351 6.935-3.408q.554-.608.967-1.316c.097-.173.158-.27.387-.112a461 461 0 0 0 5.557 3.692c.311.202.106.337 0 .474a17.9 17.9 0 0 1-8.166 6.456 17.2 17.2 0 0 1-5.903 1.197zm-10.73-18.439.486-.193 3.131-1.307c4.109-1.712 8.201-3.432 12.307-5.137.326-.132.343-.246.158-.521a7.7 7.7 0 0 0-2.028-2.074c-1.934-1.331-4.062-1.545-6.307-1.086-3.315.667-5.804 2.376-6.985 5.661a12.6 12.6 0 0 0-.762 4.66zm-19.181-9.17V2.494c0-.42.088-.535.522-.53 2.345.027 4.687.021 7.031 0 .323 0 .425.062.425.408v52.396c0 .31-.082.387-.386.387h-7.123c-.422 0-.46-.15-.46-.504q-.013-13.054-.012-26.109z"/>
</svg>
